public/icon/Z_ALL/Jav.library.svg

<?xml version="1.0" encoding="UTF-8"?>
<svg width="1024px" height="1024px" viewBox="0 0 1024 1024" version="1.1" xmlns="http://www.w3.org/2000/svg" xmlns:xlink="http://www.w3.org/1999/xlink">
    <title>Jav.library</title>
    <g id="ICON-新版方图标" stroke="none" stroke-width="1" fill="none" fill-rule="evenodd">
        <g id="Jav.library">
            <rect id="蒙版路径" fill="#F908BB" x="0" y="0" width="1024" height="1024"></rect>
            <g id="编组" transform="translate(39.5, 716)">
                <text id="library" stroke="#9F9B9E" stroke-width="4" font-family="PingFangSC-Semibold, PingFang SC" font-size="135" font-weight="500" letter-spacing="11.25" fill="#3C3C3C">
                    <tspan x="467.1775" y="204">library</tspan>
                </text>
                <text id="JAV" stroke="#FFC700" stroke-width="10" font-family="Arial-Black, Arial Black" font-size="185" font-weight="700" letter-spacing="15.4166667" fill="#ED49BA">
                    <tspan x="0.776855469" y="204">JAV</tspan>
                </text>
            </g>
            <g id="编组" transform="translate(296, 91)" fill="#FFFFFF" stroke="#979797">
                <path d="M441.5,464.5 L441.5,493.5 L261.052876,493.5 C255.981277,492.121277 251.24396,488.392434 246.817511,482.352689 C242.481639,476.436532 240.050467,470.487332 239.539333,464.5 L441.5,464.5 Z" id="矩形"></path>
                <path d="M567.5,351.5 L567.5,380.5 L387.052876,380.5 C381.981277,379.121277 377.24396,375.392434 372.817511,369.352689 C368.481639,363.436532 366.050467,357.487332 365.539333,351.5 L567.5,351.5 Z" id="矩形" transform="translate(466.5, 366) scale(-1, 1) rotate(68) translate(-466.5, -366)"></path>
                <path d="M49.2479996,210.542696 C77.9600459,193.138747 111.045353,187.770263 148.5,194.418611 L148.5,475.117035 L187.824053,436.368365 C195.939423,430.486192 203.017555,426.800499 209.065409,425.328365 C214.995841,423.884813 219.920454,424.581795 223.825374,427.473028 C227.714031,430.352218 229.495643,434.762021 229.227432,440.671338 C228.953021,446.717239 226.549691,454.309523 222.039841,463.452696 L179.310727,511.977962 L390.531357,511.977962 C392.98565,539.565648 388.325924,559.980909 376.469168,573.187059 C364.520349,586.49575 345.560813,592.132077 319.636327,590.185428 L291.469943,624.5 L0.5,624.5 L0.499999997,284.346305 C4.23009931,252.577462 20.4832036,227.978618 49.2479996,210.542696 Z" id="矩形"></path>
                <circle id="椭圆形" cx="149" cy="90" r="89.5"></circle>
            </g>
        </g>
    </g>
</svg>

<svg xmlns="http://www.w3.org/2000/svg" width="1024" height="1024"><g fill="none" fill-rule="evenodd"><path fill="#F908BB" d="M0 0h1024v1024H0z"/><text fill="#3C3C3C" stroke="#9F9B9E" stroke-width="4" font-family="PingFangSC-Semibold, PingFang SC" font-size="135" font-weight="500" letter-spacing="11.25" transform="translate(39.5 716)">
                    <tspan x="467.178" y="204">library</tspan>
                </text><text fill="#ED49BA" stroke="#FFC700" stroke-width="10" font-family="Arial-Black, Arial Black" font-size="185" font-weight="700" letter-spacing="15.417" transform="translate(39.5 716)">
                    <tspan x=".777" y="204">JAV</tspan>
                </text><g fill="#FFF" stroke="#979797" transform="translate(296 91)"><path d="M441.5 464.5v29H261.053c-5.072-1.379-9.809-5.108-14.235-11.147-4.336-5.916-6.768-11.866-7.279-17.853z"/><path d="m415.22 454.214 26.889 10.863 67.597-167.307c.621-5.22-1.062-11.008-5.003-17.375-3.861-6.236-8.467-10.72-13.827-13.436l-75.655 187.255ZM49.248 210.543c28.712-17.404 61.797-22.773 99.252-16.124v280.698l39.324-38.749c8.115-5.882 15.194-9.568 21.241-11.04 5.93-1.443 10.855-.746 14.76 2.145 3.889 2.88 5.67 7.289 5.402 13.198-.274 6.046-2.677 13.639-7.187 22.782l-42.73 48.525h211.221c2.455 27.588-2.205 48.003-14.062 61.21-11.949 13.308-30.908 18.944-56.833 16.997L291.47 624.5H.5V284.346c3.73-31.769 19.983-56.367 48.748-73.803Z"/><circle cx="149" cy="90" r="89.5"/></g></g></svg>
